source/img/contacts.svg

<svg width="301" height="181" viewBox="0 0 301 181" fill="none" xmlns="http://www.w3.org/2000/svg">
<ellipse opacity="0.2" cx="150.157" cy="171.26" rx="150.157" ry="9.73991" fill="#98C3E8"/>
<path d="M250.397 142.781C247.405 142.033 252.267 151.198 255.073 155.874C257.202 159.615 261.619 159.147 261.619 156.809C261.619 154.471 254.138 143.717 250.397 142.781Z" fill="url(#paint0_linear)"/>
<path d="M272.404 143.695C272.274 140.613 264.861 147.873 261.172 151.888C258.187 154.989 259.886 159.093 262.129 158.43C264.371 157.768 272.566 147.548 272.404 143.695Z" fill="url(#paint1_linear)"/>
<path d="M261.597 139.64C259.653 137.244 258.038 147.493 257.473 152.916C256.929 157.186 260.742 159.465 262.146 157.595C263.55 155.726 264.026 142.634 261.597 139.64Z" fill="url(#paint2_linear)"/>
<path d="M51.6723 168.799L53.0751 163.655H48.8668L42.3206 172.072L51.6723 168.799Z" fill="#6FCF97"/>
<path d="M23.6172 172.072L27.3579 168.799L24.0847 166.461L13.7979 172.072H23.6172Z" fill="#6FCF97"/>
<path d="M111.524 65.9297L108.718 72.4759L107.315 74.3462L102.639 75.749L102.172 70.6055L105.445 62.6566L111.524 65.9297Z" fill="#F2994A"/>
<path d="M125.551 68.7352L126.954 70.6055L130.695 68.7352L128.824 65.4621C127.422 63.1242 124.756 59.9906 123.213 58.4483C121.811 57.0455 121.966 57.9807 121.811 58.9159L124.616 62.6566C124.616 62.6566 123.466 63.6497 123.213 64.5269C122.905 65.5941 123.067 66.4066 123.681 67.3324C124.185 68.0935 125.551 68.7352 125.551 68.7352Z" fill="url(#paint3_linear)"/>
<path d="M105.912 79.9573L108.25 83.2304L112.458 79.9573C111.211 78.5545 108.717 75.6555 108.717 75.2814V72.4759C107.782 72.7876 106.431 73.8012 104.977 73.411C103.48 73.0095 102.795 71.5407 102.171 70.6055C102.171 70.6055 101.227 71.0688 100.768 71.5407C99.2403 73.1112 99.6741 75.2533 100.768 77.1517C101.911 79.134 105.912 79.9573 105.912 79.9573Z" fill="url(#paint4_linear)"/>
<path d="M130.695 68.7352L148 85.5L138.644 87.9063L126.954 70.6056L130.695 68.7352Z" fill="url(#paint5_linear)"/>
<path d="M159.218 76.6841C157.722 73.3175 163.271 68.4234 166.232 66.3972L178.857 81.36L172.778 89.3089L168.102 99.5958L160.621 89.3089L163.426 83.2303C162.647 82.451 160.714 80.0507 159.218 76.6841Z" fill="url(#paint6_linear)"/>
<path d="M27.3581 168.331L24.085 166.461L71.3112 120.17H108.25L116.199 135.6L67.5705 144.484L27.3581 168.331Z" fill="url(#paint7_linear)"/>
<path opacity="0.2" d="M114.5 135.5L67.5 144.5L59.5 149L73.5 121L114.5 135.5Z" fill="black"/>
<path d="M127.889 110.818C124.896 112.688 119.316 114.091 117.134 114.559L126.486 127.651L155.009 119.702L166.698 92.1145L162.022 86.0359C159.996 85.7242 154.728 84.5396 151.736 84.1656C147.995 83.698 129.759 89.7766 126.486 89.7766C123.867 89.7766 116.043 83.2304 112.458 79.9573L108.25 83.2304C111.367 87.4387 118.63 96.2293 122.745 97.7256C127.889 99.5959 141.916 95.8552 140.981 97.7256C140.046 99.5959 131.629 108.48 127.889 110.818Z" fill="url(#paint8_linear)"/>
<path opacity="0.2" d="M146.5 99.5C144.9 103.5 133.167 108.833 127.5 111C133.5 107 138 101.5 141 98C143.667 97 148.1 95.5 146.5 99.5Z" fill="black"/>
<path d="M53.0755 163.655H48.8672C53.2313 146.043 63.0818 110.818 67.5706 110.818C72.0595 110.818 102.484 113.312 117.135 114.559L125.084 124.846L104 134.5L75.052 128.119L53.0755 163.655Z" fill="url(#paint9_linear)"/>
<path d="M114.33 169.266C87.2098 170.669 83.9367 165.058 81.5987 160.85C78.7932 152.433 81.5987 146.822 95.6263 138.406C109.654 129.989 126.955 121.572 140.982 113.623C155.01 105.674 176.519 67.8 198.495 64.0593C220.472 60.3186 234.032 88.3738 239.175 117.832C244.319 147.29 228.421 164.123 222.81 164.123C217.199 164.123 141.45 167.863 114.33 169.266Z" fill="url(#paint10_linear)"/>
<path d="M166.231 76.6841C163.239 75.5619 164.985 69.6703 166.231 66.8648C167.77 61.7214 177.921 52.8372 184.935 51.4345C191.948 50.0317 201.3 57.9807 201.3 63.1241C201.3 68.2676 201.3 71.0731 207.846 74.8138C214.393 78.5545 215.795 88.3738 208.782 92.5821C201.768 96.7903 202.703 93.5172 192.416 97.2579C182.129 100.999 176.518 118.299 172.31 110.818C168.102 103.337 175.115 103.804 170.907 98.6607C166.699 93.5172 176.986 85.5683 176.518 81.8276C176.05 78.0869 169.972 78.0869 166.231 76.6841Z" fill="url(#paint11_linear)"/>
<rect x="33.2783" y="57.6278" width="36.4717" height="27.12" fill="#5A98D0"/>
<path d="M47.5788 70.4439C48.7476 72.7409 50.6307 74.6158 52.9277 75.7928L54.7133 74.0071C54.9325 73.788 55.2571 73.7149 55.5412 73.8123C56.4503 74.1126 57.4324 74.2749 58.4388 74.2749C58.8852 74.2749 59.2505 74.6402 59.2505 75.0866V77.9193C59.2505 78.3657 58.8852 78.731 58.4388 78.731C50.8174 78.731 44.6406 72.5542 44.6406 64.9328C44.6406 64.4863 45.0059 64.1211 45.4523 64.1211H48.2931C48.7395 64.1211 49.1048 64.4863 49.1048 64.9328C49.1048 65.9473 49.2671 66.9213 49.5674 67.8304C49.6567 68.1145 49.5917 68.431 49.3645 68.6583L47.5788 70.4439Z" fill="white"/>
<rect x="51.9463" width="36.4717" height="27.12" fill="#5A98D0"/>
<path d="M77.1069 7.30493H64.1204C63.2276 7.30493 62.5052 8.03542 62.5052 8.92825L62.4971 18.6682C62.4971 19.561 63.2276 20.2915 64.1204 20.2915H77.1069C77.9998 20.2915 78.7303 19.561 78.7303 18.6682V8.92825C78.7303 8.03542 77.9998 7.30493 77.1069 7.30493ZM77.1069 10.5516L70.6137 14.6099L64.1204 10.5516V8.92825L70.6137 12.9865L77.1069 8.92825V10.5516Z" fill="white"/>
<rect x="124.184" width="36.4717" height="27.12" fill="#5A98D0"/>
<path d="M142.032 5.68158C137.552 5.68158 133.924 9.31781 133.924 13.7982C133.924 18.2785 137.552 21.9148 142.032 21.9148C146.521 21.9148 150.157 18.2785 150.157 13.7982C150.157 9.31781 146.521 5.68158 142.032 5.68158ZM147.657 10.5515H145.263C145.003 9.53696 144.63 8.56297 144.143 7.66203C145.636 8.17337 146.878 9.2123 147.657 10.5515ZM142.04 7.33736C142.714 8.31136 143.242 9.39086 143.591 10.5515H140.49C140.839 9.39086 141.367 8.31136 142.04 7.33736ZM135.758 15.4215C135.628 14.902 135.547 14.3582 135.547 13.7982C135.547 13.2381 135.628 12.6943 135.758 12.1749H138.502C138.437 12.7105 138.388 13.2462 138.388 13.7982C138.388 14.3501 138.437 14.8858 138.502 15.4215H135.758ZM136.424 17.0448H138.818C139.078 18.0594 139.451 19.0334 139.938 19.9343C138.445 19.423 137.203 18.3922 136.424 17.0448ZM138.818 10.5515H136.424C137.203 9.20418 138.445 8.17337 139.938 7.66203C139.451 8.56297 139.078 9.53696 138.818 10.5515ZM142.04 20.259C141.367 19.285 140.839 18.2055 140.49 17.0448H143.591C143.242 18.2055 142.714 19.285 142.04 20.259ZM143.94 15.4215H140.141C140.068 14.8858 140.011 14.3501 140.011 13.7982C140.011 13.2462 140.068 12.7024 140.141 12.1749H143.94C144.013 12.7024 144.07 13.2462 144.07 13.7982C144.07 14.3501 144.013 14.8858 143.94 15.4215ZM144.143 19.9343C144.63 19.0334 145.003 18.0594 145.263 17.0448H147.657C146.878 18.384 145.636 19.423 144.143 19.9343ZM145.579 15.4215C145.644 14.8858 145.693 14.3501 145.693 13.7982C145.693 13.2462 145.644 12.7105 145.579 12.1749H148.323C148.453 12.6943 148.534 13.2381 148.534 13.7982C148.534 14.3582 148.453 14.902 148.323 15.4215H145.579Z" fill="white"/>
<path d="M249.461 152.133C250.863 149.795 270.308 150.263 270.97 152.133C271.631 154.004 270.034 164.291 266.761 165.226C263.489 166.161 256.942 166.628 254.136 165.226C251.33 163.823 248.058 154.471 249.461 152.133Z" fill="#F2994A"/>
<defs>
<linearGradient id="paint0_linear" x1="255.538" y1="142.738" x2="255.538" y2="158.624" gradientUnits="userSpaceOnUse">
<stop stop-color="#6CEDA0"/>
<stop offset="1" stop-color="#199D56"/>
</linearGradient>
<linearGradient id="paint1_linear" x1="273.901" y1="148.613" x2="258.665" y2="153.113" gradientUnits="userSpaceOnUse">
<stop stop-color="#6CEDA0"/>
<stop offset="1" stop-color="#199D56"/>
</linearGradient>
<linearGradient id="paint2_linear" x1="265.733" y1="142.693" x2="256.193" y2="155.395" gradientUnits="userSpaceOnUse">
<stop stop-color="#6CEDA0"/>
<stop offset="1" stop-color="#199D56"/>
</linearGradient>
<linearGradient id="paint3_linear" x1="132.021" y1="61.0366" x2="121.327" y2="65.5815" gradientUnits="userSpaceOnUse">
<stop stop-color="#FFF8E1"/>
<stop offset="1" stop-color="#FFCC80"/>
</linearGradient>
<linearGradient id="paint4_linear" x1="114.35" y1="73.8456" x2="101.318" y2="81.9065" gradientUnits="userSpaceOnUse">
<stop stop-color="#FFF8E1"/>
<stop offset="1" stop-color="#FFCC80"/>
</linearGradient>
<linearGradient id="paint5_linear" x1="138.996" y1="67.4491" x2="137.852" y2="86.3108" gradientUnits="userSpaceOnUse">
<stop stop-color="#98D0FC"/>
<stop offset="1" stop-color="#3481D7"/>
</linearGradient>
<linearGradient id="paint6_linear" x1="164" y1="71.5" x2="164.808" y2="84.3269" gradientUnits="userSpaceOnUse">
<stop stop-color="#FFF8E1"/>
<stop offset="1" stop-color="#FFCC80"/>
</linearGradient>
<linearGradient id="paint7_linear" x1="42.5" y1="138" x2="78" y2="152" gradientUnits="userSpaceOnUse">
<stop offset="0.0642604" stop-color="#EB5757"/>
<stop offset="1" stop-color="#872727"/>
</linearGradient>
<linearGradient id="paint8_linear" x1="121" y1="80" x2="146.847" y2="110.376" gradientUnits="userSpaceOnUse">
<stop stop-color="#98D0FC"/>
<stop offset="1" stop-color="#3481D7"/>
</linearGradient>
<linearGradient id="paint9_linear" x1="70" y1="108" x2="101" y2="142.5" gradientUnits="userSpaceOnUse">
<stop stop-color="#EB5757"/>
<stop offset="1" stop-color="#872727"/>
</linearGradient>
<linearGradient id="paint10_linear" x1="240" y1="117" x2="166.369" y2="114.12" gradientUnits="userSpaceOnUse">
<stop stop-color="#FCF898"/>
<stop offset="1" stop-color="#D7BD34"/>
</linearGradient>
<linearGradient id="paint11_linear" x1="189.008" y1="51.2711" x2="189.008" y2="112.674" gradientUnits="userSpaceOnUse">
<stop stop-color="#AF6CED"/>
<stop offset="1" stop-color="#5E199D"/>
</linearGradient>
</defs>
</svg>

<svg width="301" height="181" fill="none" xmlns="http://www.w3.org/2000/svg"><ellipse opacity=".2" cx="150.157" cy="171.26" rx="150.157" ry="9.74" fill="#98C3E8"/><path d="M250.397 142.781c-2.992-.748 1.87 8.417 4.676 13.093 2.129 3.741 6.546 3.273 6.546.935s-7.481-13.092-11.222-14.028z" fill="url(#paint0_linear)"/><path d="M272.404 143.695c-.13-3.082-7.543 4.178-11.232 8.193-2.985 3.101-1.286 7.205.957 6.542 2.242-.662 10.437-10.882 10.275-14.735z" fill="url(#paint1_linear)"/><path d="M261.597 139.64c-1.944-2.396-3.559 7.853-4.124 13.276-.544 4.27 3.269 6.549 4.673 4.679 1.404-1.869 1.88-14.961-.549-17.955z" fill="url(#paint2_linear)"/><path d="M51.672 168.799l1.403-5.144h-4.208l-6.546 8.417 9.351-3.273zm-28.055 3.273l3.74-3.273-3.272-2.338-10.287 5.611h9.82z" fill="#6FCF97"/><path d="M111.524 65.93l-2.806 6.546-1.403 1.87-4.676 1.403-.467-5.143 3.273-7.95 6.079 3.274z" fill="#F2994A"/><path d="M125.551 68.735l1.403 1.87 3.741-1.87-1.871-3.273c-1.402-2.338-4.068-5.471-5.611-7.014-1.402-1.403-1.247-.467-1.402.468l2.805 3.74s-1.15.994-1.403 1.87c-.308 1.068-.146 1.88.468 2.806.504.762 1.87 1.403 1.87 1.403z" fill="url(#paint3_linear)"/><path d="M105.912 79.957l2.338 3.273 4.208-3.273c-1.247-1.402-3.741-4.301-3.741-4.676v-2.805c-.935.312-2.286 1.325-3.74.935-1.497-.401-2.182-1.87-2.806-2.805 0 0-.944.463-1.403.935-1.528 1.57-1.094 3.712 0 5.61 1.143 1.983 5.144 2.806 5.144 2.806z" fill="url(#paint4_linear)"/><path d="M130.695 68.735L148 85.5l-9.356 2.406-11.69-17.3 3.741-1.87z" fill="url(#paint5_linear)"/><path d="M159.218 76.684c-1.496-3.367 4.053-8.26 7.014-10.287l12.625 14.963-6.079 7.949-4.676 10.287-7.481-10.287 2.805-6.079c-.779-.779-2.712-3.18-4.208-6.546z" fill="url(#paint6_linear)"/><path d="M27.358 168.331l-3.273-1.87 47.226-46.291h36.939l7.949 15.43-48.629 8.884-40.212 23.847z" fill="url(#paint7_linear)"/><path opacity=".2" d="M114.5 135.5l-47 9-8 4.5 14-28 41 14.5z" fill="#000"/><path d="M127.889 110.818c-2.993 1.87-8.573 3.273-10.755 3.741l9.352 13.092 28.523-7.949 11.689-27.587-4.676-6.08c-2.026-.31-7.294-1.495-10.286-1.87-3.741-.467-21.977 5.612-25.25 5.612-2.619 0-10.443-6.547-14.028-9.82l-4.208 3.273c3.117 4.209 10.38 13 14.495 14.496 5.144 1.87 19.171-1.87 18.236 0-.935 1.87-9.352 10.754-13.092 13.092z" fill="url(#paint8_linear)"/><path opacity=".2" d="M146.5 99.5c-1.6 4-13.333 9.333-19 11.5 6-4 10.5-9.5 13.5-13 2.667-1 7.1-2.5 5.5 1.5z" fill="#000"/><path d="M53.075 163.655h-4.208c4.364-17.612 14.215-52.837 18.704-52.837 4.489 0 34.913 2.494 49.564 3.741l7.949 10.287L104 134.5l-28.948-6.381-21.977 35.536z" fill="url(#paint9_linear)"/><path d="M114.33 169.266c-27.12 1.403-30.393-4.208-32.731-8.416-2.806-8.417 0-14.028 14.027-22.444 14.028-8.417 31.329-16.834 45.356-24.783 14.028-7.949 35.537-45.823 57.513-49.564 21.977-3.74 35.537 24.315 40.68 53.773 5.144 29.458-10.754 46.291-16.365 46.291-5.611 0-81.36 3.74-108.48 5.143z" fill="url(#paint10_linear)"/><path d="M166.231 76.684c-2.992-1.122-1.246-7.014 0-9.82 1.539-5.143 11.69-14.027 18.704-15.43 7.013-1.402 16.365 6.547 16.365 11.69 0 5.144 0 7.95 6.546 11.69 6.547 3.74 7.949 13.56.936 17.768-7.014 4.208-6.079.935-16.366 4.676-10.287 3.741-15.898 21.041-20.106 13.56-4.208-7.481 2.805-7.014-1.403-12.157-4.208-5.144 6.079-13.093 5.611-16.833-.468-3.741-6.546-3.741-10.287-5.144z" fill="url(#paint11_linear)"/><path fill="#5A98D0" d="M33.278 57.628H69.75v27.12H33.278z"/><path d="M47.579 70.444a12.296 12.296 0 005.349 5.349l1.785-1.786a.807.807 0 01.828-.195c.91.3 1.891.463 2.898.463.446 0 .812.365.812.812v2.832a.814.814 0 01-.812.812c-7.622 0-13.798-6.177-13.798-13.798 0-.447.365-.812.811-.812h2.841c.447 0 .812.365.812.812 0 1.014.162 1.988.462 2.897a.811.811 0 01-.203.828l-1.785 1.786z" fill="#fff"/><path fill="#5A98D0" d="M51.946 0h36.472v27.12H51.946z"/><path d="M77.107 7.305H64.12c-.892 0-1.615.73-1.615 1.623l-.008 9.74c0 .893.73 1.623 1.623 1.623h12.987c.893 0 1.623-.73 1.623-1.623v-9.74c0-.893-.73-1.623-1.623-1.623zm0 3.247l-6.493 4.058-6.494-4.058V8.928l6.494 4.058 6.493-4.058v1.624z" fill="#fff"/><path fill="#5A98D0" d="M124.184 0h36.472v27.12h-36.472z"/><path d="M142.032 5.682c-4.48 0-8.108 3.636-8.108 8.116 0 4.48 3.628 8.117 8.108 8.117 4.489 0 8.125-3.636 8.125-8.117 0-4.48-3.636-8.116-8.125-8.116zm5.625 4.87h-2.394a12.714 12.714 0 00-1.12-2.89 6.517 6.517 0 013.514 2.89zm-5.617-3.215a11.427 11.427 0 011.551 3.215h-3.101c.349-1.161.877-2.24 1.55-3.215zm-6.282 8.085a6.683 6.683 0 01-.211-1.624c0-.56.081-1.104.211-1.623h2.744a13.388 13.388 0 00-.114 1.623c0 .552.049 1.088.114 1.623h-2.744zm.666 1.623h2.394c.26 1.014.633 1.988 1.12 2.89a6.482 6.482 0 01-3.514-2.89zm2.394-6.494h-2.394a6.482 6.482 0 013.514-2.889c-.487.901-.86 1.875-1.12 2.89zm3.222 9.708a11.451 11.451 0 01-1.55-3.214h3.101a11.426 11.426 0 01-1.551 3.214zm1.9-4.838h-3.799a11.95 11.95 0 01-.13-1.623c0-.552.057-1.096.13-1.623h3.799c.073.527.13 1.071.13 1.623s-.057 1.088-.13 1.623zm.203 4.513c.487-.9.86-1.875 1.12-2.89h2.394a6.517 6.517 0 01-3.514 2.89zm1.436-4.513c.065-.535.114-1.07.114-1.623 0-.552-.049-1.088-.114-1.623h2.744c.13.52.211 1.063.211 1.623s-.081 1.104-.211 1.623h-2.744z" fill="#fff"/><path d="M249.461 152.133c1.402-2.338 20.847-1.87 21.509 0 .661 1.871-.936 12.158-4.209 13.093-3.272.935-9.819 1.402-12.625 0-2.806-1.403-6.078-10.755-4.675-13.093z" fill="#F2994A"/><defs><linearGradient id="paint0_linear" x1="255.538" y1="142.738" x2="255.538" y2="158.624" gradientUnits="userSpaceOnUse"><stop stop-color="#6CEDA0"/><stop offset="1" stop-color="#199D56"/></linearGradient><linearGradient id="paint1_linear" x1="273.901" y1="148.613" x2="258.665" y2="153.113" gradientUnits="userSpaceOnUse"><stop stop-color="#6CEDA0"/><stop offset="1" stop-color="#199D56"/></linearGradient><linearGradient id="paint2_linear" x1="265.733" y1="142.693" x2="256.193" y2="155.395" gradientUnits="userSpaceOnUse"><stop stop-color="#6CEDA0"/><stop offset="1" stop-color="#199D56"/></linearGradient><linearGradient id="paint3_linear" x1="132.021" y1="61.037" x2="121.327" y2="65.582" gradientUnits="userSpaceOnUse"><stop stop-color="#FFF8E1"/><stop offset="1" stop-color="#FFCC80"/></linearGradient><linearGradient id="paint4_linear" x1="114.35" y1="73.846" x2="101.318" y2="81.906" gradientUnits="userSpaceOnUse"><stop stop-color="#FFF8E1"/><stop offset="1" stop-color="#FFCC80"/></linearGradient><linearGradient id="paint5_linear" x1="138.996" y1="67.449" x2="137.852" y2="86.311" gradientUnits="userSpaceOnUse"><stop stop-color="#98D0FC"/><stop offset="1" stop-color="#3481D7"/></linearGradient><linearGradient id="paint6_linear" x1="164" y1="71.5" x2="164.808" y2="84.327" gradientUnits="userSpaceOnUse"><stop stop-color="#FFF8E1"/><stop offset="1" stop-color="#FFCC80"/></linearGradient><linearGradient id="paint7_linear" x1="42.5" y1="138" x2="78" y2="152" gradientUnits="userSpaceOnUse"><stop offset=".064" stop-color="#EB5757"/><stop offset="1" stop-color="#872727"/></linearGradient><linearGradient id="paint8_linear" x1="121" y1="80" x2="146.847" y2="110.376" gradientUnits="userSpaceOnUse"><stop stop-color="#98D0FC"/><stop offset="1" stop-color="#3481D7"/></linearGradient><linearGradient id="paint9_linear" x1="70" y1="108" x2="101" y2="142.5" gradientUnits="userSpaceOnUse"><stop stop-color="#EB5757"/><stop offset="1" stop-color="#872727"/></linearGradient><linearGradient id="paint10_linear" x1="240" y1="117" x2="166.369" y2="114.12" gradientUnits="userSpaceOnUse"><stop stop-color="#FCF898"/><stop offset="1" stop-color="#D7BD34"/></linearGradient><linearGradient id="paint11_linear" x1="189.008" y1="51.271" x2="189.008" y2="112.674" gradientUnits="userSpaceOnUse"><stop stop-color="#AF6CED"/><stop offset="1" stop-color="#5E199D"/></linearGradient></defs></svg>
